packages/core/src/svgs/tokens/branded/MET.svg

<svg width="24" height="24" viewBox="0 0 24 24" fill="none" xmlns="http://www.w3.org/2000/svg">
<path d="M2 10.1438V17.7125C2 18.1438 2.37499 18.875 3.30624 18.875C4.23749 18.875 4.48749 18.1 4.49999 17.7125V10.3688C4.58641 9.59111 4.96489 8.87518 5.55891 8.36585C6.15294 7.85651 6.9182 7.59174 7.69998 7.62503C8.46419 7.60039 9.20826 7.87217 9.77672 8.38354C10.3452 8.8949 10.6939 9.60627 10.75 10.3688V17.7125C10.75 18.1438 11.1124 18.875 12.0125 18.875C12.9063 18.875 13.25 18.1624 13.25 17.8562C13.2375 15.4688 13.25 10.6313 13.25 10.3688C13.25 9.85623 13.7499 7.62503 16.525 7.62503C17.2807 7.6044 18.0145 7.87966 18.5702 8.39216C19.1259 8.90467 19.4594 9.61386 19.5 10.3688V17.7125C19.5 18.2125 19.9249 18.875 20.8125 18.875C21.6749 18.875 21.9875 18.05 22 17.7125V10.1438C22 7.26878 19.3499 5.12503 16.525 5.12503C15.6644 5.14521 14.8177 5.34655 14.0401 5.71593C13.2627 6.08531 12.5718 6.61442 12.0125 7.26878C11.4859 6.62707 10.8293 6.10423 10.086 5.73471C9.34272 5.3652 8.52945 5.15742 7.69998 5.12503C3.49374 5.15628 2 8.50003 2 10.1438Z" fill="#7E61F8"/>
</svg>

<svg xmlns="http://www.w3.org/2000/svg" width="24" height="24" fill="none" viewBox="0 0 24 24">
    <path fill="#7E61F8" d="M2 10.144v7.568c0 .432.375 1.163 1.306 1.163S4.487 18.1 4.5 17.712V10.37a3.09 3.09 0 0 1 3.2-2.744 2.96 2.96 0 0 1 3.05 2.744v7.343c0 .432.362 1.163 1.262 1.163.894 0 1.238-.713 1.238-1.019-.012-2.387 0-7.225 0-7.487 0-.513.5-2.744 3.275-2.744A2.9 2.9 0 0 1 19.5 10.37v7.343c0 .5.425 1.163 1.313 1.163.862 0 1.175-.825 1.187-1.163v-7.568c0-2.875-2.65-5.019-5.475-5.019a6.13 6.13 0 0 0-4.512 2.144A5.88 5.88 0 0 0 7.7 5.125C3.494 5.156 2 8.5 2 10.144"/>
</svg>
